img/Ico/Phone.svg

<svg width="22" height="22" viewBox="0 0 22 22" fill="none" xmlns="http://www.w3.org/2000/svg">
<path fill-rule="evenodd" clip-rule="evenodd" d="M7.87044 3.44626C7.23113 2.97499 6.80061 2.86858 6.56961 2.91367C5.61659 3.09966 5.05167 3.47065 4.28629 4.23602C3.24155 5.28074 2.73464 6.06082 2.95542 7.24357C3.20961 8.60531 4.45145 10.6836 7.87422 14.1065C11.2968 17.5289 13.3876 18.7839 14.757 19.0434C15.3916 19.1637 15.8748 19.0696 16.3085 18.8561C16.7721 18.6277 17.2185 18.2434 17.7305 17.709C18.1846 17.2351 18.4602 16.9044 18.653 16.5789C18.8367 16.2689 18.9669 15.9262 19.0675 15.4113C19.1126 15.1803 19.0062 14.7498 18.5349 14.1104C18.0952 13.5141 17.475 12.9218 16.9017 12.4384C16.5233 12.1194 15.9379 12.099 15.4651 12.453L14.0199 13.5349C12.7163 14.5107 10.8948 14.371 9.74473 13.2208L8.75981 12.236C7.60972 11.0859 7.46993 9.26437 8.44578 7.96077L9.52762 6.51564C9.8816 6.04276 9.86123 5.45739 9.54218 5.07904C9.05881 4.50579 8.46665 3.88576 7.87044 3.44626ZM8.99999 1.91396C9.77043 2.48189 10.4738 3.23086 10.9975 3.85184C11.952 4.98377 11.8741 6.5576 11.0516 7.65646L9.96974 9.10159C9.56664 9.63996 9.6188 10.4028 10.1058 10.8899L11.0908 11.8747C11.5779 12.3619 12.3406 12.4139 12.8791 12.0109L14.3242 10.9291C15.4231 10.1065 16.9968 10.0286 18.1287 10.983C18.7499 11.5067 19.4991 12.2102 20.0671 12.9808C20.6034 13.7082 21.143 14.7156 20.9359 15.7764C20.8028 16.4574 20.6074 17.0149 20.2907 17.5493C19.9832 18.0684 19.5836 18.5266 19.105 19.0261C18.5505 19.6049 17.9182 20.1853 17.1496 20.5638C16.3511 20.9571 15.4487 21.1121 14.4025 20.9138C12.4103 20.5362 9.95955 18.8839 6.52813 15.4525C3.097 12.0213 1.45523 9.58104 1.0841 7.59288C0.679566 5.42569 1.80565 4.02449 2.94022 2.88993C3.87737 1.95279 4.766 1.3261 6.20498 1.04528C7.26542 0.838322 8.27266 1.37779 8.99999 1.91396Z" fill="black"/>
</svg>

<svg width="22" height="22" fill="none" xmlns="http://www.w3.org/2000/svg"><path fill-rule="evenodd" clip-rule="evenodd" d="M7.87 3.446c-.639-.471-1.07-.577-1.3-.532-.953.186-1.518.557-2.284 1.322-1.044 1.045-1.551 1.825-1.33 3.008.254 1.361 1.495 3.44 4.918 6.863 3.423 3.422 5.514 4.677 6.883 4.936.635.12 1.118.027 1.551-.187.464-.228.91-.613 1.422-1.147.455-.474.73-.805.923-1.13.184-.31.314-.653.415-1.168.045-.23-.062-.661-.533-1.3-.44-.597-1.06-1.19-1.633-1.673-.379-.319-.964-.339-1.437.015l-1.445 1.082a3.273 3.273 0 0 1-4.275-.314l-.985-.985a3.273 3.273 0 0 1-.314-4.275l1.082-1.445c.354-.473.333-1.059.014-1.437-.483-.573-1.075-1.193-1.672-1.633zM9 1.914c.77.568 1.474 1.317 1.998 1.938.954 1.132.876 2.706.054 3.804L9.97 9.102a1.37 1.37 0 0 0 .136 1.788l.985.985a1.37 1.37 0 0 0 1.788.136l1.445-1.082c1.1-.822 2.673-.9 3.805.054.62.524 1.37 1.227 1.938 1.998.536.727 1.076 1.735.869 2.795-.133.681-.329 1.239-.645 1.773-.308.52-.707.978-1.186 1.477-.555.579-1.187 1.16-1.955 1.538-.799.393-1.701.548-2.747.35-1.993-.378-4.443-2.03-7.875-5.462-3.431-3.43-5.073-5.871-5.444-7.86C.68 5.427 1.806 4.025 2.94 2.89c.937-.937 1.826-1.564 3.265-1.845 1.06-.207 2.068.333 2.795.869z" fill="#000"/></svg>
